source/img/adress-contact.svg

<svg width="25" height="25" viewBox="0 0 25 25" fill="none" xmlns="http://www.w3.org/2000/svg">
<path d="M12.4999 0.961426C8.02645 0.961426 4.38696 4.60091 4.38696 9.07441C4.38696 10.5859 4.80564 12.0609 5.59801 13.3406L12.0381 23.7187C12.1615 23.9176 12.3788 24.0383 12.6126 24.0383C12.6144 24.0383 12.6161 24.0383 12.6179 24.0383C12.8537 24.0365 13.0715 23.912 13.1926 23.7097L19.4686 13.231C20.2172 11.9783 20.6129 10.541 20.6129 9.07441C20.6129 4.60091 16.9734 0.961426 12.4999 0.961426ZM18.3082 12.5368L12.6023 22.0636L6.74725 12.6282C6.08771 11.563 5.73011 10.3342 5.73011 9.07441C5.73011 5.34649 8.77203 2.30457 12.4999 2.30457C16.2279 2.30457 19.2653 5.34649 19.2653 9.07441C19.2653 10.2968 18.9312 11.4942 18.3082 12.5368Z" fill="url(#paint0_linear)"/>
<path d="M12.5 4.39453C10.0769 4.39453 8.10547 6.36592 8.10547 8.78906C8.10547 11.1967 10.0448 13.1836 12.5 13.1836C14.9855 13.1836 16.8945 11.1703 16.8945 8.78906C16.8945 6.36592 14.9231 4.39453 12.5 4.39453ZM12.5 11.7285C10.8761 11.7285 9.56055 10.4085 9.56055 8.78906C9.56055 7.17363 10.8846 5.84961 12.5 5.84961C14.1154 5.84961 15.4346 7.17363 15.4346 8.78906C15.4346 10.3849 14.1496 11.7285 12.5 11.7285Z" fill="url(#paint1_linear)"/>
<defs>
<linearGradient id="paint0_linear" x1="20.6129" y1="24.0383" x2="4.38696" y2="24.0383" gradientUnits="userSpaceOnUse">
<stop stop-color="#FF6E2F"/>
<stop offset="1" stop-color="#F84343"/>
</linearGradient>
<linearGradient id="paint1_linear" x1="16.8945" y1="13.1836" x2="8.10547" y2="13.1836" gradientUnits="userSpaceOnUse">
<stop stop-color="#FF6E2F"/>
<stop offset="1" stop-color="#F84343"/>
</linearGradient>
</defs>
</svg>

<svg width="25" height="25" fill="none" xmlns="http://www.w3.org/2000/svg"><path d="M12.5.961c-4.474 0-8.113 3.64-8.113 8.113 0 1.512.419 2.987 1.211 4.267l6.44 10.378c.123.199.34.32.575.32h.005a.676.676 0 00.575-.33l6.276-10.478a8.104 8.104 0 001.144-4.157c0-4.473-3.64-8.113-8.113-8.113zm5.808 11.576l-5.706 9.527-5.855-9.436A6.753 6.753 0 015.73 9.074c0-3.728 3.042-6.77 6.77-6.77 3.728 0 6.765 3.042 6.765 6.77 0 1.223-.334 2.42-.957 3.463z" fill="url(#paint0_linear)"/><path d="M12.5 4.395a4.4 4.4 0 00-4.395 4.394 4.389 4.389 0 004.395 4.395 4.386 4.386 0 004.395-4.395A4.4 4.4 0 0012.5 4.395zm0 7.334a2.942 2.942 0 01-2.94-2.94 2.95 2.95 0 012.94-2.94 2.946 2.946 0 012.935 2.94 2.936 2.936 0 01-2.935 2.94z" fill="url(#paint1_linear)"/><defs><linearGradient id="paint0_linear" x1="20.613" y1="24.038" x2="4.387" y2="24.038" gradientUnits="userSpaceOnUse"><stop stop-color="#FF6E2F"/><stop offset="1" stop-color="#F84343"/></linearGradient><linearGradient id="paint1_linear" x1="16.895" y1="13.184" x2="8.105" y2="13.184" gradientUnits="userSpaceOnUse"><stop stop-color="#FF6E2F"/><stop offset="1" stop-color="#F84343"/></linearGradient></defs></svg>
